X: 20752
T: Johnny Harling's
R: reel
M: 4/4
K: Dmajor
|:A|FA A/A/A dA (3Bcd|efaf edBA|B2 dB Aede|dBAF EFDA|
FA A/A/A AFEF|DBBA Bfbf|afed (3Bcd gB|Afeg fd d:|
|:f|(3agf Bc dfBf|A2 AB (3dcB cB|fB B/A/B AB B/A/B|Acgc B2 Bc|
dfcd efaf|dG G/F/G dgbg|afed (3Bcd gb|afeg fd d:|

